TileServer und Tiles/svg/9/43_10.svg

<?xml version='1.0' encoding='UTF-8' standalone='no'?>
<svg xmlns="http://www.w3.org/2000/svg" width="497pt" viewBox="0 0 497 279" xmlns:xlink="http://www.w3.org/1999/xlink" height="279pt">
 <defs style="stroke:none;" overflow="visible">
  <path id="glyph0-5" d="M 2.546875 -4.90625 L 7.46875 -4.90625 L 7.46875 -3.3125 L 2.546875 -3.3125 Z M 6.90625 -0.046875 C 6.484375 -0.046875 6.40625 -0.09375 6.40625 -0.375 L 6.40625 -2.625 L 8.21875 -2.625 L 8.21875 -5.578125 L 5.34375 -5.578125 L 5.34375 -6.6875 L 9.3125 -6.6875 L 9.3125 -7.375 L 5.34375 -7.375 L 5.34375 -8.375 L 4.59375 -8.375 L 4.59375 -7.375 L 0.71875 -7.375 L 0.71875 -6.6875 L 4.59375 -6.6875 L 4.59375 -5.578125 L 1.828125 -5.578125 L 1.828125 -2.625 L 3.375 -2.625 C 3.1875 -1.234375 2.65625 -0.34375 0.46875 0.109375 C 0.625 0.265625 0.828125 0.578125 0.90625 0.796875 C 3.3125 0.203125 3.9375 -0.90625 4.1875 -2.625 L 5.671875 -2.625 L 5.671875 -0.375 C 5.671875 0.4375 5.90625 0.671875 6.84375 0.671875 L 8.40625 0.671875 C 9.25 0.671875 9.46875 0.296875 9.5625 -1.203125 C 9.34375 -1.25 9.03125 -1.375 8.859375 -1.515625 C 8.8125 -0.234375 8.765625 -0.046875 8.34375 -0.046875 Z M 6.90625 -0.046875 "/>
  <path id="glyph0-4" d="M 9.546875 -2.609375 C 9.4375 -3.6875 9.0625 -5.28125 8.65625 -6.546875 L 8.078125 -6.40625 C 8.453125 -5.15625 8.8125 -3.53125 8.9375 -2.453125 Z M 7.828125 -8.234375 L 7.15625 -8.234375 L 7.15625 -1.40625 C 7.15625 -1.265625 7.109375 -1.203125 6.96875 -1.203125 C 6.84375 -1.203125 6.375 -1.203125 5.90625 -1.21875 C 6 -1.046875 6.125 -0.78125 6.15625 -0.59375 C 6.796875 -0.59375 7.203125 -0.625 7.484375 -0.71875 C 7.734375 -0.828125 7.828125 -1 7.828125 -1.40625 Z M 6.15625 -6.515625 C 5.984375 -5.046875 5.703125 -3.515625 5.203125 -2.53125 C 5.359375 -2.453125 5.65625 -2.328125 5.765625 -2.234375 C 6.234375 -3.28125 6.578125 -4.84375 6.78125 -6.421875 Z M 4 -4.640625 C 3.53125 -4.484375 3.09375 -4.34375 2.75 -4.234375 L 2.96875 -3.59375 C 3.28125 -3.703125 3.640625 -3.828125 4 -3.953125 L 4 -1.4375 C 4 -1.3125 3.953125 -1.296875 3.84375 -1.28125 C 3.75 -1.28125 3.421875 -1.28125 3.046875 -1.296875 C 3.140625 -1.125 3.234375 -0.859375 3.265625 -0.6875 C 3.8125 -0.6875 4.15625 -0.6875 4.375 -0.796875 C 4.609375 -0.90625 4.671875 -1.0625 4.671875 -1.421875 L 4.671875 -4.203125 L 5.625 -4.5625 L 5.515625 -5.171875 L 4.671875 -4.875 L 4.671875 -6.140625 C 5.125 -6.59375 5.609375 -7.15625 5.9375 -7.703125 L 5.5 -8.015625 L 5.375 -7.96875 L 2.96875 -7.96875 L 2.96875 -7.34375 L 4.90625 -7.34375 C 4.65625 -6.984375 4.3125 -6.578125 4 -6.296875 Z M 2.734375 -6.390625 C 2.421875 -6.84375 1.765625 -7.515625 1.234375 -7.984375 L 0.6875 -7.59375 C 1.21875 -7.09375 1.859375 -6.40625 2.15625 -5.953125 Z M 2.515625 -4.828125 L 0.546875 -4.828125 L 0.546875 -4.125 L 1.828125 -4.125 L 1.828125 -0.96875 C 1.40625 -0.796875 0.90625 -0.40625 0.421875 0.09375 L 0.875 0.6875 C 1.390625 0.078125 1.90625 -0.453125 2.25 -0.453125 C 2.484375 -0.453125 2.796875 -0.15625 3.203125 0.078125 C 3.90625 0.46875 4.75 0.578125 5.9375 0.578125 C 6.890625 0.578125 8.640625 0.515625 9.375 0.46875 C 9.390625 0.265625 9.5 -0.0625 9.578125 -0.25 C 8.609375 -0.140625 7.125 -0.0625 5.953125 -0.0625 C 4.859375 -0.0625 4.015625 -0.140625 3.375 -0.5 C 2.96875 -0.71875 2.734375 -0.921875 2.515625 -1.015625 Z M 2.515625 -4.828125 "/>
  <path id="glyph0-3" d="M 2.875 -3.890625 L 7.28125 -3.890625 L 7.28125 -2.796875 L 2.875 -2.796875 Z M 7.28125 -7.234375 L 7.28125 -6.171875 L 2.875 -6.171875 L 2.875 -7.234375 Z M 2.875 -5.546875 L 7.28125 -5.546875 L 7.28125 -4.515625 L 2.875 -4.515625 Z M 9.421875 -2.125 L 9.421875 -2.796875 L 8.015625 -2.796875 L 8.015625 -7.890625 L 2.15625 -7.890625 L 2.15625 -2.796875 L 0.609375 -2.796875 L 0.609375 -2.125 L 3.40625 -2.125 C 2.796875 -1.421875 2.125 -0.8125 1.90625 -0.640625 C 1.625 -0.421875 1.40625 -0.28125 1.203125 -0.25 C 1.296875 -0.046875 1.40625 0.3125 1.4375 0.484375 C 1.8125 0.34375 2.34375 0.328125 7.890625 0.046875 C 8.140625 0.3125 8.34375 0.5625 8.515625 0.765625 L 9.15625 0.421875 C 8.65625 -0.21875 7.625 -1.234375 6.75 -1.9375 L 6.125 -1.65625 C 6.53125 -1.328125 6.953125 -0.9375 7.34375 -0.546875 L 2.546875 -0.34375 C 3.15625 -0.828125 3.796875 -1.453125 4.375 -2.125 Z M 9.421875 -2.125 "/>
  <path id="glyph0-2" d="M 7.53125 -5.8125 L 2.40625 -5.8125 L 2.40625 -7.265625 L 7.53125 -7.265625 Z M 8.296875 -7.9375 L 1.671875 -7.9375 L 1.671875 -5.140625 L 8.296875 -5.140625 Z M 9.40625 -1.8125 L 9.40625 -2.484375 L 5.15625 -2.484375 C 5.234375 -2.8125 5.28125 -3.15625 5.3125 -3.546875 L 8.859375 -3.546875 L 8.859375 -4.203125 L 1.203125 -4.203125 L 1.203125 -3.546875 L 4.5625 -3.546875 C 4.53125 -3.15625 4.484375 -2.796875 4.40625 -2.484375 L 0.578125 -2.484375 L 0.578125 -1.8125 L 4.203125 -1.8125 C 3.734375 -0.75 2.75 -0.15625 0.453125 0.15625 C 0.59375 0.3125 0.765625 0.59375 0.8125 0.78125 C 3.4375 0.375 4.515625 -0.421875 5 -1.8125 C 5.609375 -0.21875 6.84375 0.5 9.078125 0.765625 C 9.171875 0.546875 9.34375 0.265625 9.515625 0.09375 C 7.5 -0.0625 6.3125 -0.609375 5.734375 -1.8125 Z M 9.40625 -1.8125 "/>
  <path id="glyph0-1" d="M 3.78125 -4.34375 C 3.375 -4.1875 2.984375 -4.015625 2.59375 -3.875 L 2.59375 -5.1875 C 3.203125 -5.8125 3.875 -6.6875 4.328125 -7.453125 L 3.875 -7.796875 L 3.734375 -7.75 L 0.6875 -7.75 L 0.6875 -7.0625 L 3.265625 -7.0625 C 2.875 -6.453125 2.34375 -5.75 1.90625 -5.296875 L 1.90625 -3.59375 C 1.34375 -3.40625 0.84375 -3.203125 0.453125 -3.0625 L 0.625 -2.3125 C 1.015625 -2.484375 1.4375 -2.65625 1.90625 -2.84375 L 1.90625 -0.046875 C 1.90625 0.0625 1.875 0.09375 1.75 0.09375 C 1.640625 0.09375 1.265625 0.109375 0.890625 0.09375 C 0.984375 0.265625 1.09375 0.546875 1.140625 0.734375 C 1.671875 0.734375 2.046875 0.734375 2.28125 0.609375 C 2.53125 0.5 2.59375 0.328125 2.59375 -0.046875 L 2.59375 -3.125 C 3.03125 -3.3125 3.484375 -3.5 3.90625 -3.6875 Z M 5.03125 -5.984375 C 4.765625 -4.5 4.34375 -2.96875 3.796875 -1.984375 C 3.953125 -1.90625 4.296875 -1.734375 4.4375 -1.625 C 4.96875 -2.6875 5.4375 -4.296875 5.734375 -5.859375 Z M 6.40625 -0.203125 C 6.40625 -0.046875 6.359375 0 6.203125 0.015625 C 6.0625 0.015625 5.546875 0.015625 5.015625 0 C 5.109375 0.203125 5.21875 0.515625 5.25 0.71875 C 5.96875 0.71875 6.46875 0.703125 6.75 0.578125 C 7.046875 0.453125 7.15625 0.265625 7.15625 -0.203125 L 7.15625 -8.3125 L 6.40625 -8.3125 Z M 7.75 -5.875 C 8.25 -4.578125 8.75 -2.890625 8.90625 -1.765625 L 9.625 -2 C 9.4375 -3.109375 8.953125 -4.78125 8.421875 -6.078125 Z M 7.75 -5.875 "/>
  <path id="glyph0-0" d="M 1 1.203125 L 9 1.203125 L 9 -8.796875 L 1 -8.796875 Z M 5 -4.203125 L 1.8125 -8.296875 L 8.1875 -8.296875 Z M 5.3125 -3.796875 L 8.5 -7.890625 L 8.5 0.296875 Z M 1.8125 0.703125 L 5 -3.390625 L 8.1875 0.703125 Z M 1.5 -7.890625 L 4.6875 -3.796875 L 1.5 0.296875 Z M 1.5 -7.890625 "/>
 </defs>
 <image width="497" xlink:href="svg/9/43_10.jpg" height="279"/>
 <g>
  <path d="M 173.082031 127.777344 C 172.675781 127.933594 172.285156 128.105469 171.894531 128.246094 L 171.894531 126.933594 C 172.503906 126.308594 173.175781 125.433594 173.628906 124.667969 L 173.175781 124.324219 L 173.035156 124.371094 L 169.988281 124.371094 L 169.988281 125.058594 L 172.566406 125.058594 C 172.175781 125.667969 171.644531 126.371094 171.207031 126.824219 L 171.207031 128.527344 C 170.644531 128.714844 170.144531 128.917969 169.753906 129.058594 L 169.925781 129.808594 C 170.316406 129.636719 170.738281 129.464844 171.207031 129.277344 L 171.207031 132.074219 C 171.207031 132.183594 171.175781 132.214844 171.050781 132.214844 C 170.941406 132.214844 170.566406 132.230469 170.191406 132.214844 C 170.285156 132.386719 170.394531 132.667969 170.441406 132.855469 C 170.972656 132.855469 171.347656 132.855469 171.582031 132.730469 C 171.832031 132.621094 171.894531 132.449219 171.894531 132.074219 L 171.894531 128.996094 C 172.332031 128.808594 172.785156 128.621094 173.207031 128.433594 Z M 174.332031 126.136719 C 174.066406 127.621094 173.644531 129.152344 173.097656 130.136719 C 173.253906 130.214844 173.597656 130.386719 173.738281 130.496094 C 174.269531 129.433594 174.738281 127.824219 175.035156 126.261719 Z M 175.707031 131.917969 C 175.707031 132.074219 175.660156 132.121094 175.503906 132.136719 C 175.363281 132.136719 174.847656 132.136719 174.316406 132.121094 C 174.410156 132.324219 174.519531 132.636719 174.550781 132.839844 C 175.269531 132.839844 175.769531 132.824219 176.050781 132.699219 C 176.347656 132.574219 176.457031 132.386719 176.457031 131.917969 L 176.457031 123.808594 L 175.707031 123.808594 Z M 177.050781 126.246094 C 177.550781 127.542969 178.050781 129.230469 178.207031 130.355469 L 178.925781 130.121094 C 178.738281 129.011719 178.253906 127.339844 177.722656 126.042969 Z M 177.050781 126.246094 " transform=" rotate(  340 184.299 129.122) " style="fill:none;stroke-width:3;stroke-linecap:butt;stroke-linejoin:round;stroke:rgb(100%,100%,100%);stroke-opacity:0.6;stroke-miterlimit:10;"/>
  <path d="M 186.832031 126.308594 L 181.707031 126.308594 L 181.707031 124.855469 L 186.832031 124.855469 Z M 187.597656 124.183594 L 180.972656 124.183594 L 180.972656 126.980469 L 187.597656 126.980469 Z M 188.707031 130.308594 L 188.707031 129.636719 L 184.457031 129.636719 C 184.535156 129.308594 184.582031 128.964844 184.613281 128.574219 L 188.160156 128.574219 L 188.160156 127.917969 L 180.503906 127.917969 L 180.503906 128.574219 L 183.863281 128.574219 C 183.832031 128.964844 183.785156 129.324219 183.707031 129.636719 L 179.878906 129.636719 L 179.878906 130.308594 L 183.503906 130.308594 C 183.035156 131.371094 182.050781 131.964844 179.753906 132.277344 C 179.894531 132.433594 180.066406 132.714844 180.113281 132.902344 C 182.738281 132.496094 183.816406 131.699219 184.300781 130.308594 C 184.910156 131.902344 186.144531 132.621094 188.378906 132.886719 C 188.472656 132.667969 188.644531 132.386719 188.816406 132.214844 C 186.800781 132.058594 185.613281 131.511719 185.035156 130.308594 Z M 188.707031 130.308594 " transform=" rotate(  340 184.299 129.122) " style="fill:none;stroke-width:3;stroke-linecap:butt;stroke-linejoin:round;stroke:rgb(100%,100%,100%);stroke-opacity:0.6;stroke-miterlimit:10;"/>
  <path d="M 192.175781 128.230469 L 196.582031 128.230469 L 196.582031 129.324219 L 192.175781 129.324219 Z M 196.582031 124.886719 L 196.582031 125.949219 L 192.175781 125.949219 L 192.175781 124.886719 Z M 192.175781 126.574219 L 196.582031 126.574219 L 196.582031 127.605469 L 192.175781 127.605469 Z M 198.722656 129.996094 L 198.722656 129.324219 L 197.316406 129.324219 L 197.316406 124.230469 L 191.457031 124.230469 L 191.457031 129.324219 L 189.910156 129.324219 L 189.910156 129.996094 L 192.707031 129.996094 C 192.097656 130.699219 191.425781 131.308594 191.207031 131.480469 C 190.925781 131.699219 190.707031 131.839844 190.503906 131.871094 C 190.597656 132.074219 190.707031 132.433594 190.738281 132.605469 C 191.113281 132.464844 191.644531 132.449219 197.191406 132.167969 C 197.441406 132.433594 197.644531 132.683594 197.816406 132.886719 L 198.457031 132.542969 C 197.957031 131.902344 196.925781 130.886719 196.050781 130.183594 L 195.425781 130.464844 C 195.832031 130.792969 196.253906 131.183594 196.644531 131.574219 L 191.847656 131.777344 C 192.457031 131.292969 193.097656 130.667969 193.675781 129.996094 Z M 198.722656 129.996094 " transform=" rotate(  340 184.299 129.122) " style="fill:none;stroke-width:3;stroke-linecap:butt;stroke-linejoin:round;stroke:rgb(100%,100%,100%);stroke-opacity:0.6;stroke-miterlimit:10;"/>
  <g transform=" rotate(  340 184.299 129.122) " style="fill:rgb(13.333333%,13.333333%,13.333333%);fill-opacity:1;">
   <use xlink:href="#glyph0-1" y="132.121767" x="169.299432"/>
   <use xlink:href="#glyph0-2" y="132.121767" x="179.299432"/>
   <use xlink:href="#glyph0-3" y="132.121767" x="189.299432"/>
  </g>
  <path d="M 406.488281 86.777344 C 406.378906 85.699219 406.003906 84.105469 405.597656 82.839844 L 405.019531 82.980469 C 405.394531 84.230469 405.753906 85.855469 405.878906 86.933594 Z M 404.769531 81.152344 L 404.097656 81.152344 L 404.097656 87.980469 C 404.097656 88.121094 404.050781 88.183594 403.910156 88.183594 C 403.785156 88.183594 403.316406 88.183594 402.847656 88.167969 C 402.941406 88.339844 403.066406 88.605469 403.097656 88.792969 C 403.738281 88.792969 404.144531 88.761719 404.425781 88.667969 C 404.675781 88.558594 404.769531 88.386719 404.769531 87.980469 Z M 403.097656 82.871094 C 402.925781 84.339844 402.644531 85.871094 402.144531 86.855469 C 402.300781 86.933594 402.597656 87.058594 402.707031 87.152344 C 403.175781 86.105469 403.519531 84.542969 403.722656 82.964844 Z M 400.941406 84.746094 C 400.472656 84.902344 400.035156 85.042969 399.691406 85.152344 L 399.910156 85.792969 C 400.222656 85.683594 400.582031 85.558594 400.941406 85.433594 L 400.941406 87.949219 C 400.941406 88.074219 400.894531 88.089844 400.785156 88.105469 C 400.691406 88.105469 400.363281 88.105469 399.988281 88.089844 C 400.082031 88.261719 400.175781 88.527344 400.207031 88.699219 C 400.753906 88.699219 401.097656 88.699219 401.316406 88.589844 C 401.550781 88.480469 401.613281 88.324219 401.613281 87.964844 L 401.613281 85.183594 L 402.566406 84.824219 L 402.457031 84.214844 L 401.613281 84.511719 L 401.613281 83.246094 C 402.066406 82.792969 402.550781 82.230469 402.878906 81.683594 L 402.441406 81.371094 L 402.316406 81.417969 L 399.910156 81.417969 L 399.910156 82.042969 L 401.847656 82.042969 C 401.597656 82.402344 401.253906 82.808594 400.941406 83.089844 Z M 399.675781 82.996094 C 399.363281 82.542969 398.707031 81.871094 398.175781 81.402344 L 397.628906 81.792969 C 398.160156 82.292969 398.800781 82.980469 399.097656 83.433594 Z M 399.457031 84.558594 L 397.488281 84.558594 L 397.488281 85.261719 L 398.769531 85.261719 L 398.769531 88.417969 C 398.347656 88.589844 397.847656 88.980469 397.363281 89.480469 L 397.816406 90.074219 C 398.332031 89.464844 398.847656 88.933594 399.191406 88.933594 C 399.425781 88.933594 399.738281 89.230469 400.144531 89.464844 C 400.847656 89.855469 401.691406 89.964844 402.878906 89.964844 C 403.832031 89.964844 405.582031 89.902344 406.316406 89.855469 C 406.332031 89.652344 406.441406 89.324219 406.519531 89.136719 C 405.550781 89.246094 404.066406 89.324219 402.894531 89.324219 C 401.800781 89.324219 400.957031 89.246094 400.316406 88.886719 C 399.910156 88.667969 399.675781 88.464844 399.457031 88.371094 Z M 399.457031 84.558594 " transform=" rotate(  340 411.94 86.3862) " style="fill:none;stroke-width:3;stroke-linecap:butt;stroke-linejoin:round;stroke:rgb(100%,100%,100%);stroke-opacity:0.6;stroke-miterlimit:10;"/>
  <path d="M 409.488281 84.480469 L 414.410156 84.480469 L 414.410156 86.074219 L 409.488281 86.074219 Z M 413.847656 89.339844 C 413.425781 89.339844 413.347656 89.292969 413.347656 89.011719 L 413.347656 86.761719 L 415.160156 86.761719 L 415.160156 83.808594 L 412.285156 83.808594 L 412.285156 82.699219 L 416.253906 82.699219 L 416.253906 82.011719 L 412.285156 82.011719 L 412.285156 81.011719 L 411.535156 81.011719 L 411.535156 82.011719 L 407.660156 82.011719 L 407.660156 82.699219 L 411.535156 82.699219 L 411.535156 83.808594 L 408.769531 83.808594 L 408.769531 86.761719 L 410.316406 86.761719 C 410.128906 88.152344 409.597656 89.042969 407.410156 89.496094 C 407.566406 89.652344 407.769531 89.964844 407.847656 90.183594 C 410.253906 89.589844 410.878906 88.480469 411.128906 86.761719 L 412.613281 86.761719 L 412.613281 89.011719 C 412.613281 89.824219 412.847656 90.058594 413.785156 90.058594 L 415.347656 90.058594 C 416.191406 90.058594 416.410156 89.683594 416.503906 88.183594 C 416.285156 88.136719 415.972656 88.011719 415.800781 87.871094 C 415.753906 89.152344 415.707031 89.339844 415.285156 89.339844 Z M 413.847656 89.339844 " transform=" rotate(  340 411.94 86.3862) " style="fill:none;stroke-width:3;stroke-linecap:butt;stroke-linejoin:round;stroke:rgb(100%,100%,100%);stroke-opacity:0.6;stroke-miterlimit:10;"/>
  <path d="M 419.816406 85.496094 L 424.222656 85.496094 L 424.222656 86.589844 L 419.816406 86.589844 Z M 424.222656 82.152344 L 424.222656 83.214844 L 419.816406 83.214844 L 419.816406 82.152344 Z M 419.816406 83.839844 L 424.222656 83.839844 L 424.222656 84.871094 L 419.816406 84.871094 Z M 426.363281 87.261719 L 426.363281 86.589844 L 424.957031 86.589844 L 424.957031 81.496094 L 419.097656 81.496094 L 419.097656 86.589844 L 417.550781 86.589844 L 417.550781 87.261719 L 420.347656 87.261719 C 419.738281 87.964844 419.066406 88.574219 418.847656 88.746094 C 418.566406 88.964844 418.347656 89.105469 418.144531 89.136719 C 418.238281 89.339844 418.347656 89.699219 418.378906 89.871094 C 418.753906 89.730469 419.285156 89.714844 424.832031 89.433594 C 425.082031 89.699219 425.285156 89.949219 425.457031 90.152344 L 426.097656 89.808594 C 425.597656 89.167969 424.566406 88.152344 423.691406 87.449219 L 423.066406 87.730469 C 423.472656 88.058594 423.894531 88.449219 424.285156 88.839844 L 419.488281 89.042969 C 420.097656 88.558594 420.738281 87.933594 421.316406 87.261719 Z M 426.363281 87.261719 " transform=" rotate(  340 411.94 86.3862) " style="fill:none;stroke-width:3;stroke-linecap:butt;stroke-linejoin:round;stroke:rgb(100%,100%,100%);stroke-opacity:0.6;stroke-miterlimit:10;"/>
  <g transform=" rotate(  340 411.94 86.3862) " style="fill:rgb(13.333333%,13.333333%,13.333333%);fill-opacity:1;">
   <use xlink:href="#glyph0-4" y="89.386223" x="396.939517"/>
   <use xlink:href="#glyph0-5" y="89.386223" x="406.939517"/>
   <use xlink:href="#glyph0-3" y="89.386223" x="416.939517"/>
  </g>
 </g>
</svg>

<svg xmlns="http://www.w3.org/2000/svg" xmlns:xlink="http://www.w3.org/1999/xlink" viewBox="0 0 497 279"> <defs overflow="visible" style="stroke:none">  <path id="e" d="M2.5-5h5v1.8h-5ZM7 0c-.5 0-.6 0-.6-.4v-2.2h1.8v-3H5.3v-1h4v-.9h-4v-.9h-.7v1H.7v.7h3.9v1.1H1.8v3h1.6C3.2-1.2 2.7-.3.4 0l.6.8C3.3.2 4-.9 4.2-2.6h1.5v2.2c0 .8.2 1 1.1 1h1.6c.8.1 1-.2 1.2-1.7-.3-.1-.6-.3-.7-.4C8.9-.2 8.8 0 8.3 0Zm0 0"/>  <path id="d" d="M9.5-2.6c0-1-.4-2.7-.8-4l-.7.3c.5 1.1.8 2.8.9 3.9ZM7.8-8.2h-.6v6.8c0 .1 0 .2-.2.2H6l.1.6 1.4-.1c.2-.1.3-.3.3-.7ZM6.2-6.5c-.2 1.5-.5 3-1 4l.6.3c.4-1 .8-2.6 1-4.2ZM4-4.6l-1.3.4.3.6L4-4v2.6l-.2.1H3l.3.6 1-.1c.4-.1.5-.3.5-.6v-2.8l.9-.4-.3-.6-.7.3V-6c.3-.6 1-1.1 1.2-1.7L5.5-8H3v.7h2l-1 1ZM2.7-6.4 1.2-8l-.5.4L2.2-6Zm-.2 1.6h-2v.7h1.3V-1L.4 0l.6.8c.4-.8.9-1.3 1.3-1.3.2 0 .5.3.8.6.8.4 1.6.5 2.8.5L9.4.5l.2-.8C8.6 0 7 0 6 0S4 0 3.4-.5L2.5-1Zm0 0"/>  <path id="c" d="M2.9-3.9h4.4v1.1H2.9Zm4.4-3.3v1H2.9v-1ZM2.9-5.5h4.4v1H2.9Zm6.5 3.4v-.7H8v-5H2.2v4.9H.6v.8h2.8L2-.6l-.8.3a4 4 0 0 1 .2.9C1.8.3 2.4.3 8 0l.5.8.7-.4a17.3 17.3 0 0 0-2.4-2.3l-.8.2L7.3-.5l-4.8.2a14 14 0 0 0 1.9-1.8Zm0 0"/>  <path id="b" d="M7.5-5.8h-5v-1.5h4.9ZM8.3-8H1.7v2.9h6.6Zm1.1 6v-.4H5.2a7 7 0 0 0 .1-1.1H9v-.7H1.2v.7h3.4l-.2 1H.6v.7h3.6C3.7-.8 2.7-.2.5.2l.3.6C3.4.4 4.5-.4 5-1.8 5.6-.2 6.8.5 9 .8l.6-.8C7.5-.1 6.3-.6 5.7-2Zm0 .2"/>  <path id="a" d="M3.8-4.3 2.6-4v-1.2a13 13 0 0 0 1.7-2.3L4-7.8H.7v.8h2.6L1.9-5.3v1.7L.5-3l.1.7L2-2.8V0H.8l.4.8h1.1c.2-.4.3-.6.3-.8v-3.1l1.3-.6ZM5-6c-.2 1.5-.7 3-1.2 4 .2 0 .5.3.6.4.6-1 1-2.7 1.3-4.4ZM6.4-.2c0 .2 0 .2-.2.2H5l.3.7L6.8.6c.2-.1.4-.3.4-.8v-8.1h-.8Zm1.3-5.7c.6 1.3 1.1 3 1.3 4.1l.6-.2a21.8 21.8 0 0 0-1.2-4Zm.1 0"/>  <path d="M1 1.2h8v-10H1Zm4-5.4L1.8-8.3h6.4Zm.3.4 3.2-4v8ZM1.8.7l3.2-4L8.2.6Zm-.3-8.6 3.2 4.1L1.5.3Zm0 0"/> </defs> <image xlink:href="svg/9/43_10.jpg" width="497" height="279"/> <path d="m173 127.8-1 .4V127a13 13 0 0 0 1.6-2.3l-.4-.4H170v.9h2.6l-1.4 1.6v1.7l-1.4.6.1.7 1.3-.5v2.7l-.1.2H170c.4.2.5.5.5.8.5-.1.9-.1 1.1-.3.2 0 .3-.3.3-.6V129l1.3-.6Zm1.4-1.8c-.3 1.6-.8 3.1-1.3 4.1l.6.4c.6-1 1-2.7 1.3-4.2Zm1.3 6c0 .1 0 .1-.2.1h-1.2l.3.7 1.4-.1c.3-.1.5-.3.5-.8V124h-.8Zm1.4-5.8c.5 1.3.9 3 1.1 4.2l.8-.4a21.8 21.8 0 0 0-1.3-3.9ZM186.8 126.3h-5V125h4.9Zm.8-2.1H181v2.8h6.6Zm1.1 6.1v-.7h-4.2a7 7 0 0 0 .1-1h3.6v-.7h-7.7v.7h3.4l-.2 1H180v.7h3.5c-.5 1-1.4 1.7-3.7 2l.2.6c2.7-.4 3.8-1.2 4.3-2.6.6 1.7 1.8 2.3 4 2.7l.6-.8c-2.1-.1-3.3-.7-3.9-1.9Zm3.5-2.1h4.4v1.1h-4.4Zm4.4-3.2v.9h-4.4v-.9Zm-4.4 1.6h4.4v1h-4.4Zm6.5 3.4v-.7h-1.4v-5h-5.8v4.9h-1.6v.8h2.8l-1.5 1.5-.7.4a4 4 0 0 1 .2.7c.4-.1 1-.2 6.5-.4l.6.7.7-.4a17.3 17.3 0 0 0-2.5-2.3l-.6.3 1.2 1-4.8.4a14 14 0 0 0 1.9-1.9Zm0 0" style="fill:none;stroke-width:3;stroke-linecap:butt;stroke-linejoin:round;stroke:#fff;stroke-opacity:.6;stroke-miterlimit:10" transform=" rotate(  340 184.299 129.122) "/> <g style="fill:#222;fill-opacity:1" transform=" rotate(  340 184.299 129.122) ">  <use xlink:href="#a" x="169.3" y="132.1"/>  <use xlink:href="#b" x="179.3" y="132.1"/>  <use xlink:href="#c" x="189.3" y="132.1"/> </g> <path d="M406.5 86.8c-.1-1.1-.5-2.8-.9-4l-.6.2c.4 1.2.8 2.9 1 4Zm-1.7-5.6h-.8V88c.1 0 .1.2-.1.2h-.9v.6l1.4-.1c.3-.1.4-.3.4-.7Zm-1.8 1.7c-.1 1.4-.4 3-.9 4l.6.3c.5-1 .8-2.7 1-4.2Zm-2.1 1.8-1.2.5.2.6 1.1-.4V88l-.2.1h-.8l.2.6 1.1-.1c.3-.1.3-.3.3-.6v-2.8l1-.4-.1-.6-.9.3v-1.3c.5-.4 1-1 1.4-1.5l-.6-.3h-2.6v.6h2.2c-.5.4-.8.8-1.2 1Zm-1.2-1.7c-.3-.5-1-1.1-1.5-1.6l-.6.4 1.5 1.6Zm-.2 1.6h-2v.7h1.3v3.1c-.5.2-1 .6-1.4 1l.4.8c.5-.7 1-1.3 1.4-1.3.2.1.5.3 1 .6.5.4 1.4.5 2.6.5l3.5-.1.2-.9-3.5.3c-1.2 0-2.1 0-2.7-.3l-.8-.6Zm10-.1h5V86h-5.1Zm4.3 4.8c-.4 0-.5 0-.5-.3v-2.2h1.9v-3h-3v-1.1h4.1V82h-4v-1h-.7v1h-3.9v.7h3.8v1.1h-2.7v3h1.5c-.2 1.4-.7 2.2-2.9 2.7l.4.7c2.5-.6 3-1.7 3.3-3.4h1.5V89c0 .8.2 1 1.2 1h1.5c.9 0 1.1-.2 1.2-1.7l-.7-.4c0 1.3 0 1.4-.5 1.4Zm6-3.8h4.4v1h-4.4Zm4.4-3.3v1h-4.4v-1Zm-4.4 1.6h4.4v1h-4.4Zm6.6 3.5v-.7H425v-5.1h-6v5h-1.4v.9h2.7c-.6.6-1.2 1.2-1.5 1.3-.2.3-.5.4-.7.4a4 4 0 0 1 .3.9c.4-.3.9-.3 6.4-.6l.7.8.5-.4a17.3 17.3 0 0 0-2.3-2.4l-.7.3 1.3 1.1-4.8.2a14 14 0 0 0 1.8-1.7Zm0 0" style="fill:none;stroke-width:3;stroke-linecap:butt;stroke-linejoin:round;stroke:#fff;stroke-opacity:.6;stroke-miterlimit:10" transform=" rotate(  340 411.94 86.3862) "/> <g style="fill:#222;fill-opacity:1" transform=" rotate(  340 411.94 86.3862) ">  <use xlink:href="#d" x="396.9" y="89.4"/>  <use xlink:href="#e" x="406.9" y="89.4"/>  <use xlink:href="#c" x="416.9" y="89.4"/> </g></svg>
